public/img/footer__mail.svg

<svg width="22" height="18" viewBox="0 0 22 18" fill="none" xmlns="http://www.w3.org/2000/svg">
<g clip-path="url(#clip0_64_278)">
<path d="M21.9991 2.77937C21.9889 1.30381 20.7828 0.106445 19.3007 0.106445H2.69929C1.21718 0.106445 0.0110781 1.30381 0.000936251 2.77937C0.000780223 2.78374 0.000312183 2.78795 0.000312183 2.79216L0 2.79793V15.2022C0 16.6863 1.21094 17.8937 2.69929 17.8937H19.3007C20.7891 17.8937 22 16.6863 22 15.2022V2.79793L21.9997 2.79216C21.9997 2.78795 21.9992 2.78358 21.9991 2.77937ZM2.69929 1.35467H19.3007C19.9963 1.35467 20.5787 1.84429 20.719 2.49508L11 9.27296L1.28099 2.49508C1.42126 1.84429 2.00356 1.35467 2.69929 1.35467ZM19.3007 16.6455H2.69929C1.89918 16.6455 1.24823 15.9981 1.24823 15.2022V3.99405L10.643 10.5457C10.7477 10.6187 10.8723 10.6579 11 10.6579C11.1277 10.6579 11.2523 10.6187 11.357 10.5457L20.7518 3.99405V15.2022C20.7518 15.9981 20.1008 16.6455 19.3007 16.6455Z" fill="white"/>
</g>
<defs>
<clipPath id="clip0_64_278">
<rect width="22" height="18" fill="white"/>
</clipPath>
</defs>
</svg>

<svg width="22" height="18" fill="none" xmlns="http://www.w3.org/2000/svg"><g clip-path="url(#clip0_64_278)"><path d="M22 2.78A2.698 2.698 0 0019.3.105H2.7A2.698 2.698 0 000 2.78v12.423a2.698 2.698 0 002.7 2.692h16.6c1.49 0 2.7-1.208 2.7-2.692V2.78zM2.7 1.354h16.6c.696 0 1.279.49 1.419 1.14L11 9.273 1.281 2.495c.14-.65.723-1.14 1.418-1.14zm16.6 15.29H2.7a1.45 1.45 0 01-1.452-1.443V3.994l9.395 6.552a.624.624 0 00.714 0l9.395-6.552v11.208c0 .796-.651 1.443-1.451 1.443z" fill="#fff"/></g><defs><clipPath id="clip0_64_278"><path fill="#fff" d="M0 0h22v18H0z"/></clipPath></defs></svg>
